X: 030679
T: Cambridge (The)
S: "Where's the Crack v/1" (DJ Taylor)
Z: B.Black
L: 1/8
M: 4/4
R: hornpipe
K: A
(3EFG|A2GA ACeg|a2 ag aece|fd (3cBA GABd|\
(3cBA BA GAFG |
EAAG Aceg|a2 ag aece|fd (3cBA GABd|(3cBA BG A2 :|
(3Bcd|e2 a2 ec A2|d2 b2 Bc (3dcB|gbeg begb|\
ac'ea c'eac'|
e'2 c'2 a2 e2|f2 df eAcA|Baga ecBc|dBGB A2 :|
